X:1     %Music
T:Bristol Town
B:Broadwood, L, 1908, English Traditional Songs and Carols, London, Boosey
S:Burstow, Henry
N:Reprinted by EP Publishing Limited, Rowman & Littlefield, Totowa, New Jersey, 1974
Z:Lucy Broadwood
M:2/4     %Meter
L:1/16     %
K:F
D2 |A2A2 F2A2 |(G3F) (DE) F2 |D4 z2     
w:In Bris-tol Town, as I_ have_ heard tell, 
D2 |G4 G2F2 |(c4 d2) (c=B) |A4 z2                
w:A rich mer-chant there_ did_ dwell 
C2 |D2 E2 F2 G2 |A2 d2 c2 d2 |(A3=B) (cB)
w:He had a daugh-ter beau-ti-ful and bright___
A2 |F2 A2 D2 A2 |(G3F) (DE) F2 |D6 |]
w:On her he fixed his own_ heart's_ de- light.